Obsidian/status/16s/printer-error-symbolic.svg

<svg height="16" width="16" xmlns="http://www.w3.org/2000/svg"><path d="m3.5 0c-.831 0-1.5.669-1.5 1.5v4.5h-.5c-.831 0-1.5.669-1.5 1.5v4c0 .831.669 1.5 1.5 1.5h.5v1.5c0 .831.669 1.5 1.5 1.5h4.484375c-.554006 0-.984375-.43038-.984375-.984375v-1.015625h-2.5c-.277 0-.5-.223-.5-.5v-.5-1h3v-4.015625c0-.553995.430369-.984375.984375-.984375h-3.984375v-1-3.5c0-.277.223-.5.5-.5h7c.277 0 .5.223.5.5v3.5 1h-4.015625l-.0058594.0058594h7.0312504c.5625 0 .990234.4272656.990234.9785156v-.484375c0-.830999-.669-1.5-1.5-1.5h-.46875-.03125v-4.5c0-.831-.669-1.5-1.5-1.5zm1.5 3v1h6.03125v-1zm0 2v1h4v-1z" fill="#bebebe"/><path d="m8.875 8c-.49245 0-.875.38256-.875.875v6.25c0 .49244.38255.875.875.875h6.25c.49245 0 .875-.38256.875-.875v-6.25c0-.49-.38-.87-.88-.87h-6.25zm2.125 1h2v4h-2zm0 5h2v1h-2z" fill="#ef2929"/></svg>

<?xml version="1.0" encoding="UTF-8" standalone="no"?>
<svg
   xmlns:dc="http://purl.org/dc/elements/1.1/"
   xmlns:cc="http://creativecommons.org/ns#"
   xmlns:rdf="http://www.w3.org/1999/02/22-rdf-syntax-ns#"
   xmlns:svg="http://www.w3.org/2000/svg"
   xmlns="http://www.w3.org/2000/svg"
   width="16"
   height="16"
   id="svg2"
   version="1.0"
   style="display:inline">
  <defs
     id="defs4" />
  <metadata
     id="metadata7">
    <rdf:RDF>
      <cc:Work
         rdf:about="">
        <dc:format>image/svg+xml</dc:format>
        <dc:type
           rdf:resource="http://purl.org/dc/dcmitype/StillImage" />
        <dc:title></dc:title>
      </cc:Work>
    </rdf:RDF>
  </metadata>
  <g
     style="display:inline"
     id="layer1">
    <path
       d="M 3.5 0 C 2.669 0 2 0.669 2 1.5 L 2 6 L 1.5 6 C 0.669 6 0 6.669 0 7.5 L 0 11.5 C 0 12.331 0.669 13 1.5 13 L 2 13 L 2 14.5 C 2 15.331 2.669 16 3.5 16 L 7.984375 16 C 7.430369 16 7 15.56962 7 15.015625 L 7 14 L 4.5 14 C 4.223 14 4 13.777 4 13.5 L 4 13 L 4 12 L 7 12 L 7 7.984375 C 7 7.43038 7.430369 7 7.984375 7 L 4 7 L 4 6 L 4 2.5 C 4 2.223 4.223 2 4.5 2 L 11.5 2 C 11.777 2 12 2.223 12 2.5 L 12 6 L 12 7 L 7.984375 7 L 7.9785156 7.0058594 L 15.009766 7.0058594 C 15.572266 7.0058594 16 7.433125 16 7.984375 L 16 7.5 C 16 6.669001 15.331 6 14.5 6 L 14.03125 6 L 14 6 L 14 1.5 C 14 0.669 13.331 0 12.5 0 L 3.5 0 z M 5 3 L 5 4 L 11.03125 4 L 11.03125 3 L 5 3 z M 5 5 L 5 6 L 9 6 L 9 5 L 5 5 z "
       style="fill:#bebebe;fill-opacity:1;stroke:none;display:inline"
       id="Symbol-4" />
  </g>
  <path
     id="path10898"
     style="color:#bebebe;fill:#ef2929;fill-opacity:1"
     d="M 8.875,8 C 8.38255,8 8,8.38256 8,8.875 v 6.25 C 8,15.61744 8.38255,16 8.875,16 h 6.25 C 15.61745,16 16,15.61744 16,15.125 v -6.25 c 0,-0.49 -0.38,-0.87 -0.88,-0.87 H 8.87 Z M 11,9 h 2 v 4 h -2 z m 0,5 h 2 v 1 h -2 z"
     class="warning" />
</svg>
